X: 175
T: It Is I, Myself
C: Teton Sioux band 1911-1914
N: Derived from sioux170.krn
O: South Dakota, U.S.A.
N: Teton Sioux Music by Frances Densmore, 1918
Z: transcribed to **kern format by Craig Sapp
L: 1/8
M: 3/4
Q: 1/4=58
K: Ab clef=bass
%%linebreak <none>
C4C =B, [I:setbarnb 2]| 
C< A,-A,2F,2 | 
A,6 ||  
[M:2/4]C> C=B,2 | 
C> C=B,2 ||  
[M:3/4]C< A,-A,2F,2 ||  
[M:2/4]F,2F, =E, | 
F,> F,=E,2 ||  
[M:3/4]=E,2-E, C,E,2 ||  
[M:2/4]F,4 | 
G,< F, F, =E, | 
F, =E,-E,2 | 
C,3C, | 
C,4 | 
C,4- | 
C,4 | 
F,> A, A,/ A,3/ | 
C> =B, C3/ B,/ | 
(3C A, A,F,2 | 
F,2F,3/ =E,/ | 
F,> =E, E,3/ E,/ | 
C,2=E,2 | 
F,4 ||  
[M:3/4]G,< F, F, =E, F,/ E,3/ | 
C,> C,C,4 | 
C,2z4 |]  



